X: 1
T:An dro (Michel Le Cam)
C:Trad 4, 4
M:4/4
L:1/8
K:C
E2DE A2Ac |B2G2 E4|\
EDCE F2FA |G2F2 E2C2|\
E2DE A2Ac |B2G2 E4|\
EDCE FEDC| B,2G,2 A,4:|
|:A,B,CE D2DC |B,2DB, C3A,|\
A,B,CG E3D| C2EC D4|\
A,B,CE D2DC| B,2DB, C3A,|\
A,B,CE DCDE| ccBB A4:|
